packages/core/src/svgs/pdex.svg

<svg width="24" height="24" viewBox="0 0 24 24" fill="none" xmlns="http://www.w3.org/2000/svg">
<g clip-path="url(#clip0_31_15782)">
<path d="M0 0H24V24H0V0Z" fill="url(#paint0_linear_31_15782)"/>
<path d="M18 16.5015V14.8082L15.1873 12.0002H13.5L18 16.5015ZM6 7.75733V9.40348L8.86071 12.4288H10.5L6 7.75733ZM7.5 5.99805H9.14014L11.976 8.80005L14.7866 5.99805H16.5L12 10.5152L7.5 5.99805ZM7.5 17.998H9.13971L11.9756 15.1965L14.7861 17.998H16.5L12 13.5088L7.5 17.998Z" fill="white"/>
<path d="M12 12.8574C12.2273 12.8574 12.4453 12.767 12.6061 12.6063C12.7668 12.4456 12.8571 12.2275 12.8571 12.0002C12.8571 11.7729 12.7668 11.5549 12.6061 11.3941C12.4453 11.2334 12.2273 11.1431 12 11.1431C11.7726 11.1431 11.5546 11.2334 11.3939 11.3941C11.2331 11.5549 11.1428 11.7729 11.1428 12.0002C11.1428 12.2275 11.2331 12.4456 11.3939 12.6063C11.5546 12.767 11.7726 12.8574 12 12.8574Z" fill="#E6007A"/>
</g>
<defs>
<linearGradient id="paint0_linear_31_15782" x1="4.46486" y1="4.16229" x2="29.2059" y2="32.5787" gradientUnits="userSpaceOnUse">
<stop stop-color="#1A1E21"/>
<stop offset="1" stop-color="#06060A"/>
</linearGradient>
<clipPath id="clip0_31_15782">
<rect width="24" height="24" fill="white"/>
</clipPath>
</defs>
</svg>

<svg xmlns="http://www.w3.org/2000/svg" width="24" height="24" fill="none" viewBox="0 0 24 24"><g clip-path="url(#a)"><path fill="url(#b)" d="M0 0h24v24H0z"/><path fill="#fff" d="M18 16.502v-1.694L15.187 12H13.5zM6 7.757v1.646l2.86 3.026h1.64zm1.5-1.759h1.64L11.976 8.8l2.81-2.802H16.5L12 10.515zm0 12h1.64l2.836-2.802 2.81 2.802H16.5l-4.5-4.49z"/><path fill="#E6007A" d="M12 12.857a.858.858 0 1 0 0-1.715.858.858 0 0 0 0 1.715"/></g><defs><linearGradient id="b" x1="4.465" x2="29.206" y1="4.162" y2="32.579" gradientUnits="userSpaceOnUse"><stop stop-color="#1A1E21"/><stop offset="1" stop-color="#06060A"/></linearGradient><clipPath id="a"><path fill="#fff" d="M0 0h24v24H0z"/></clipPath></defs></svg>
